X:11
T:Lowery's Quadrille (also R-173)
M:C|
L:1/8
R:reel
K:D
"D"A,B,DE D2 DE|FABF A2 (3ABc|d2 B2 A2 F2|["1,3""A"EDED"D" E F3:|["2,4""A"(3B,CD-D2 "D"D4||
"D"DEFA dB A2|"G"B4 B4|"D"A3B A F3|"A"E6 FE|
"D"DEFA dB A2|"G"B4 B2 cB|"A"ABcd efge|"D"f d2 d d4||
"D"f4 f4|fedA BA3|"A"a4 a4|abaf e d3|
"D"f4 f4|fedA "G"BABc|"D"d2 B2 A2 F2|"A"(3B,CD-D2 "D"D4|]
% %text 4/19/08. For use only by Roaring Jelly members.
